!!!OTL: Verschlafener Jaeger Es wollt ein Jaeger frueh jagen,
!!!ARE: Europa, Osteuropa, UdSSR, Ukraine, Ladekopp
!!!YOR: 7, S. 188
!!    1942 aufgezeichnet im Lager Marienbad
!!!SCT: Q0152D
!!!YEM: Copyright 1995, estate of Helmut Schaffrath.
**kern
*ICvox
*Ivox
*M6/8
*k[f#c#g#]
*A:
{8e
=1
4a
8e
8e
8f#
8g#
=2
4.a
4f#}
{8f#
=3
4f#
8f#
8a
8g#
8a
=4
4e
8d
4c#}
{8e
=5
4e
8d
8B
8B
8g#
=6
4a
8cc#
8cc#
8b}
{8cc#
=7
4dd
8b
8b
8a
8g#
=8
4.a
4r}
==
!!!AGN: Ballade, Verfuehrung, Versagen, Spott
!! Anhaengsel an der dritten Zeile.
!!!ONB: ESAC (Essen Associative Code) Database: BALLADE
!!!AMT: compound duple
!!!AIN: vox
!!!EED: Helmut Schaffrath
!!!EEV: 1.0
*-
